app/images/dest/icons/svg/enter.svg

<svg width="24" height="24" viewBox="0 0 24 24" fill="none" xmlns="http://www.w3.org/2000/svg">
<path fill-rule="evenodd" clip-rule="evenodd" d="M4 7C4 5.34315 5.34315 4 7 4L13 4C13.5523 4 14 4.44772 14 5C14 5.55228 13.5523 6 13 6L7 6C6.44772 6 6 6.44772 6 7L6 17C6 17.5523 6.44772 18 7 18H13C13.5523 18 14 18.4477 14 19C14 19.5523 13.5523 20 13 20H7C5.34315 20 4 18.6569 4 17L4 7Z" fill="white"/>
<path fill-rule="evenodd" clip-rule="evenodd" d="M14.804 7.80455C15.1946 7.41402 15.8277 7.41402 16.2182 7.80455L20.4137 12L16.2182 16.1955C15.8277 16.586 15.1946 16.586 14.804 16.1955C14.4135 15.8049 14.4135 15.1718 14.804 14.7812L16.5853 13H10C9.44774 13 9.00003 12.5523 9.00003 12C9.00003 11.4477 9.44774 11 10 11L16.5853 11L14.804 9.21876C14.4135 8.82824 14.4135 8.19507 14.804 7.80455Z" fill="white"/>
</svg>

<svg width="24" height="24" fill="none" xmlns="http://www.w3.org/2000/svg"><path fill-rule="evenodd" clip-rule="evenodd" d="M4 7a3 3 0 0 1 3-3h6a1 1 0 1 1 0 2H7a1 1 0 0 0-1 1v10a1 1 0 0 0 1 1h6a1 1 0 1 1 0 2H7a3 3 0 0 1-3-3V7Z" fill="#fff"/><path fill-rule="evenodd" clip-rule="evenodd" d="M14.804 7.805a1 1 0 0 1 1.414 0L20.414 12l-4.196 4.195a1 1 0 0 1-1.414-1.414L16.585 13H10a1 1 0 0 1 0-2h6.585l-1.781-1.781a1 1 0 0 1 0-1.414Z" fill="#fff"/></svg>
